packages/match-logos/mono/svg/teamsnap.svg

<svg fill="none" height="36" viewBox="0 0 166 36" width="166" xmlns="http://www.w3.org/2000/svg" xmlns:xlink="http://www.w3.org/1999/xlink"><clipPath id="a"><path d="m0 0h165.766v36h-165.766z"/></clipPath><g clip-path="url(#a)"><path d="m35.9996 17.999c.0005 3.5604-1.055 7.041-3.0328 10.0016s-4.7892 5.2681-8.0785 6.6308c-3.2894 1.3628-6.909 1.7194-10.401 1.0249-3.4921-.6945-6.69973-2.409-9.21735-4.9266s-4.23209-5.7253-4.9266-9.2173c-.694508-3.4921-.33785131-7.1117 1.02486-10.401 1.36272-3.28937 3.67028-6.10073 6.63086-8.07855 2.96053-1.97782 6.44123-3.03326328 10.00163-3.03284988 4.7734.00055425 9.3512 1.89704988 12.7266 5.27238988 3.3753 3.37533 5.2718 7.95311 5.2723 12.72661" fill="#1f304c"/><path d="m13.4381 29.0166-4.72806-3.6161c1.49386-1.7028 3.05596-3.3325 4.68626-4.889.6438-.6271 1.0451-1.0305 1.2186-1.1998-.5239-.0822-2.0233-.4223-4.4981-1.0201-1.78231-.4319-2.95632-.751-3.52207-.9573l1.94809-5.5663c2.51758 1.0247 4.94568 2.2566 7.25938 3.683-.5017-3.4572-.7518-6.27903-.7504-8.4654h5.5642c0 1.56767-.2787 4.4118-.8361 8.5323.418-.1686 1.3238-.5762 2.7173-1.2228 1.9174-.8556 3.683-1.5851 5.2966-2.1884l1.6137 5.677c-2.3439.5212-5.0549 1.0319-8.1331 1.5321l3.7791 4.2871c.7539.8695 1.3517 1.5788 1.7934 2.1279l-4.8388 3.175-4.2035-7.0879c-1.2708 2.2532-2.7263 4.6528-4.3665 7.1987" fill="#fff"/><g fill="#1f304c"><path d="m46.3716 10.8775c-.0544 1.0953-.1108 3.6641-.1108 3.9923-.0522 1.4778-.0522 7.5436 0 11.3709.0564 2.1341.5476 3.6098 2.6797 4.8075 0 0-1.2019 1.7516-1.6408 2.4058-3.1709-1.7516-3.9359-4.3748-3.9359-7.4349v-8.6347c0-2.5689-.0544-4.6466 0-6.3418-.6564-.2195-1.8039-.2738-2.732-.3282.0544-.7106.0544-1.69514.1631-2.40582.9695-.00738 1.9374-.0807 2.897-.21947-.1087-.4912 0-1.14754 0-1.36492.0544-1.75161.1108-2.56889.2195-3.82721 0 0 2.4602-.81936 2.9514-1.14753-.1087 1.31057-.2195 4.09893-.3282 6.61348 1.4778-.05435 3.2817-.27382 4.1554-.27382-.0293.87545-.0112 1.75184.0543 2.62529-.6542-.1087-3.499.1631-4.3727.1631z"/><path d="m60.0941 31.8739c-1.9125 0-4.4835-1.4234-5.8526-3.3443-1.53-2.1864-2.3494-5.1943-2.3494-9.4061 0-8.7476 3.4969-12.08358 7.9261-12.08358 4.2097 0 5.7941 5.74188 6.0136 12.02928-4.3184.3825-9.6777.8193-10.934.7107.1652 2.9534.4369 4.9747 1.3106 6.6699.9302 1.6408 2.7905 2.734 4.0467 2.734s4.1554-.6563 5.0855-1.2541c.2536.639.5842 1.2448.9845 1.8038-.5476.8758-4.5985 2.1341-6.2331 2.1341zm-.9301-22.15013c-1.806 0-4.3205 2.62323-4.1554 7.49133 1.2754.0993 2.5577.0622 3.8251-.1107 1.5322-.1631 3.2274-.3805 3.8816-.4912-.4369-3.9924-1.0451-6.89779-3.5534-6.89779"/><path d="m78.0806 34.1689c0-.7651-.3825-3.8816-.4933-4.9748-1.2019 1.2542-3.7164 3.5534-6.5048 3.5534-1.6931 0-4.4292-2.2407-4.4292-7.5436 0-2.0234 1.0953-5.0855 3.2817-6.2895 3.6621-1.9669 6.4504-2.6233 7.7631-3.1709.0543-2.7319-.163-4.4835-1.6408-5.1921-1.4996-.72259-3.143-1.097-4.8076-1.0953 0 0 .1652-2.4602.1652-2.9514 1.8603.21947 5.7962.93015 7.1632 1.85821 1.4213.8758 1.8582 3.55339 1.8582 4.70299 0 .3825.0543 8.7476.0543 14.3808.0125 2.0095.1402 4.0166.3826 6.0115-.9302.2195-2.0234.4912-2.7884.7107zm-5.5182-13.6137c-1.4214.765-3.1144 2.0798-3.1144 3.9923 0 3.8273.928 5.1378 2.6232 5.1378 1.6387 0 4.0446-2.1863 5.468-3.662.1631-.4933.1631-6.5069.1631-7.6001-.7107.209-3.938 1.4757-5.1399 2.132"/><path d="m105.306 31.3806c-.329.0543-1.859.2738-3.006.3825.109-1.6408.163-4.2097.163-5.3029v-12.301c0-2.4058.054-3.7164-1.254-3.7164-1.5825 0-4.8077 2.7883-5.5205 3.5534.1087 1.6387.1087 16.7218.163 17.4952h-3.1729c.1651-.3846.2738-3.4991.2738-3.7624 0-1.4778-.209-12.7504-.209-14.1613 0-3.2253-.2738-3.5534-2.2407-3.5534-1.4757 0-3.6078.9845-4.4836 1.4778 0 1.2541-.1087 17.4931-.1087 20.9921-.9094-.2724-1.8433-.4551-2.7883-.5455.0543-1.4778.1087-8.1519.1087-8.6389l.0543-16.72186c.8194.16513 1.8603.43686 2.4602.38252 0 0 .1651 1.367.3282 1.96899 1.969-.9845 4.4292-1.69517 6.2874-1.69517 1.0932 0 2.3515.49329 2.8427 2.18637.1622.57055.2542 1.15875.2738 1.75165 1.6952-1.58652 4.4835-3.60986 6.3956-3.60986 2.735 0 3.5 2.13203 3.5 5.95926l-.055 17.8777"/><path d="m109.998 32.6326c.078-1.319.065-2.6418-.04-3.9589 3.401 0 5.362-1.2207 5.362-2.8469 0-1.923-1.589-4.1052-2.734-5.6959-1.628-2.107-3.186-4.471-3.186-7.0274 0-4.54829 3.221-6.28526 9.693-6.28526-.073 1.14544-.186 2.32851-.038 3.58686-3.438.0731-5.549.7023-5.549 2.2992 0 1.5531.296 1.923 2.554 5.2883 1.551 2.2177 3.252 4.772 3.252 7.3158 0 4.5839-2.255 6.5821-9.316 7.3158"/><path d="m131.668 31.4099c-.59-2.1425-4.511-11.1681-5.843-14.1258-.075 1.0452-.037 2.8469-.037 4.1032-.038 3.7728.037 10.2839.037 10.2839-1.415-.2879-2.849-.4737-4.291-.556.149-1.8812.554-7.9429.592-12.7232.037-4.1408-.184-9.28065-.222-11.16812 1.203-.00298 2.404-.10224 3.591-.29682.186 1.29594 4.105 10.43024 5.955 14.16544 0-.9991.113-6.6573-.037-9.8742-.029-1.2142-.139-2.42514-.331-3.62445 1.381-.05455 2.755-.22799 4.106-.51838v24.59573c-1.405-.1108-2.371-.1484-3.516-.2613"/><path d="m147.608 32.5218c-.148-1.3691-.851-3.6997-1.045-5.1064-.042-.2446-.067-.4918-.075-.7399l-4.66.2236c-.181 1.0451-.886 4.4376-1.034 5.5851-1.25-.5532-2.535-1.0231-3.846-1.4067.37-1.5154 2.926-12.4619 4.105-20.1561.192-1.21858.537-2.99527.537-3.62234.889-.11078 3.179-.2571 3.995-.40551.292 1.33148 5.62 23.00295 6.028 24.66465-.999.184-2.885.6271-3.995.9615zm-3.752-18.5695c-.259 1.8812-1.254 8.3212-1.442 9.4311.666-.1108 2.508-.0732 3.292-.1861-.297-1.4046-1.442-7.4684-1.85-9.245z"/><path d="m157.476 22.24c0 2.7737.036 6.4337.257 8.5427-1.626.5895-4.251 1.11-4.251 1.11 0-2.9953.11-9.4332 0-15.7562-.076-3.1813-.333-7.39521-.628-8.56991 1.196-.31582 2.424-.48912 3.66-.51629 5.032-.18603 9.246 1.47779 9.246 7.3952 0 3.219-3.66 7.435-8.284 7.8049zm-.209-11.6509c.035 1.0451.109 2.7005.146 4.0696.038 1.0723.111 2.9264.111 3.9568 2.406-.1128 4.145-2.2177 4.145-4.402 0-2.7382-1.553-3.6244-4.402-3.6244"/></g></g></svg>

<svg width="166" height="36" viewBox="0 0 166 36" fill="none" xmlns="http://www.w3.org/2000/svg">
<g clip-path="url(#clip0)">
<path fill-rule="evenodd" clip-rule="evenodd" d="M32.9667 28.0006C34.9446 25.04 36 21.5594 35.9996 17.999C35.999 13.2255 34.1025 8.64772 30.7272 5.27239C27.3519 1.89705 22.7741 0.000554489 18.0006 0C14.4402 -0.000413162 10.9596 1.05503 7.99901 3.03285C5.03843 5.01067 2.73087 7.82203 1.36815 11.1114C0.00543765 14.4007 -0.351219 18.0203 0.343289 21.5124C1.0378 25.0044 2.75227 28.2121 5.26989 30.7297C7.78751 33.2473 10.9952 34.9618 14.4872 35.6563C17.9793 36.3508 21.5989 35.9942 24.8882 34.6314C28.1776 33.2687 30.9889 30.9612 32.9667 28.0006ZM8.70998 25.4005L13.4381 29.0166C15.0782 26.4707 16.5337 24.0711 17.8046 21.8179L22.008 28.9058L26.8469 25.7308C26.4051 25.1817 25.8073 24.4724 25.0535 23.6029L21.2743 19.3158C24.3525 18.8156 27.0636 18.3049 29.4074 17.7837L27.7938 12.1067C26.1801 12.71 24.4146 13.4395 22.4971 14.2951C21.1036 14.9417 20.1979 15.3493 19.7798 15.5179C20.3372 11.3974 20.6159 8.55327 20.6159 6.9856H15.0517C15.0503 9.17197 15.3005 11.9938 15.8021 15.451C13.4884 14.0246 11.0603 12.7927 8.54276 11.768L6.59467 17.3343C7.16042 17.5406 8.33443 17.8597 10.1167 18.2916C12.5915 18.8894 14.0909 19.2295 14.6149 19.3117C14.5578 19.3674 14.476 19.4485 14.3691 19.5545C14.151 19.7707 13.8282 20.0907 13.3963 20.5115C11.7659 22.068 10.2038 23.6977 8.70998 25.4005Z" fill="#1F304C"/>
<path d="M46.3717 10.8775C46.3174 11.9728 46.2609 14.5416 46.2609 14.8698C46.2087 16.3476 46.2087 22.4134 46.2609 26.2407C46.3174 28.3748 46.8086 29.8505 48.9406 31.0482C48.9406 31.0482 47.7387 32.7998 47.2998 33.454C44.1289 31.7024 43.3639 29.0792 43.3639 26.0191V17.3844C43.3639 14.8155 43.3095 12.7378 43.3639 11.0426C42.7076 10.8231 41.56 10.7688 40.632 10.7144C40.6863 10.0038 40.6863 9.01926 40.795 8.30858C41.7645 8.3012 42.7325 8.22788 43.692 8.08911C43.5834 7.59791 43.692 6.94157 43.692 6.72419C43.7464 4.97258 43.8028 4.1553 43.9115 2.89698C43.9115 2.89698 46.3717 2.07762 46.8629 1.74945C46.7542 3.06002 46.6434 5.84838 46.5347 8.36293C48.0125 8.30858 49.8164 8.08911 50.6901 8.08911C50.6608 8.96456 50.6789 9.84095 50.7445 10.7144C50.0902 10.6057 47.2454 10.8775 46.3717 10.8775Z" fill="#1F304C"/>
<path d="M60.0941 31.8739C58.1815 31.8739 55.6105 30.4505 54.2414 28.5296C52.7114 26.3432 51.892 23.3353 51.892 19.1235C51.892 10.3759 55.389 7.03992 59.8182 7.03992C64.0279 7.03992 65.6123 12.7818 65.8318 19.0692C61.5133 19.4517 56.154 19.8885 54.8978 19.7799C55.0629 22.7333 55.3346 24.7546 56.2083 26.4498C57.1385 28.0906 58.9988 29.1838 60.255 29.1838C61.5113 29.1838 64.4104 28.5275 65.3406 27.9297C65.5942 28.5687 65.9248 29.1745 66.325 29.7335C65.7774 30.6093 61.7265 31.8676 60.092 31.8676L60.0941 31.8739ZM59.1639 9.72377C57.358 9.72377 54.8434 12.347 55.0086 17.2151C56.2839 17.3144 57.5662 17.2773 58.8337 17.1044C60.3658 16.9413 62.061 16.7239 62.7152 16.6132C62.2784 12.6208 61.6701 9.71541 59.1618 9.71541" fill="#1F304C"/>
<path d="M78.0805 34.1689C78.0805 33.4038 77.698 30.2873 77.5872 29.1941C76.3853 30.4483 73.8708 32.7475 71.0824 32.7475C69.3893 32.7475 66.6532 30.5068 66.6532 25.2039C66.6532 23.1805 67.7485 20.1184 69.9349 18.9144C73.5969 16.9475 76.3853 16.2911 77.698 15.7435C77.7523 13.0116 77.5349 11.26 76.0571 10.5514C74.5576 9.82881 72.9142 9.4544 71.2496 9.4561C71.2496 9.4561 71.4147 6.9959 71.4147 6.5047C73.275 6.72417 77.2109 7.43485 78.578 8.36291C79.9993 9.23871 80.4362 11.9163 80.4362 13.0659C80.4362 13.4484 80.4905 21.8135 80.4905 27.4467C80.503 29.4562 80.6307 31.4633 80.873 33.4582C79.9429 33.6777 78.8497 33.9494 78.0847 34.1689H78.0805ZM72.5623 20.5552C71.1409 21.3202 69.4478 22.635 69.4478 24.5475C69.4478 28.3748 70.3759 29.6853 72.0711 29.6853C73.7098 29.6853 76.1157 27.499 77.5391 26.0233C77.7022 25.53 77.7021 19.5164 77.7021 18.4232C76.9915 18.6322 73.7642 19.8989 72.5623 20.5552" fill="#1F304C"/>
<path d="M105.306 31.3806C104.978 31.4349 103.448 31.6544 102.3 31.7631C102.409 30.1223 102.463 27.5534 102.463 26.4602V14.1592C102.463 11.7534 102.517 10.4428 101.209 10.4428C99.6266 10.4428 96.4013 13.2311 95.6886 13.9962C95.7973 15.6349 95.7973 30.718 95.8516 31.4914H92.6786C92.8438 31.1068 92.9525 27.9923 92.9525 27.729C92.9525 26.2512 92.7434 14.9786 92.7434 13.5677C92.7434 10.3424 92.4696 10.0143 90.5027 10.0143C89.027 10.0143 86.895 10.9988 86.0192 11.4921C86.0192 12.7462 85.9105 28.9852 85.9105 32.4842C85.0011 32.2118 84.0672 32.0291 83.1221 31.9387C83.1765 30.4609 83.2308 23.7868 83.2308 23.2998L83.2852 6.57794C84.1045 6.74307 85.1455 7.0148 85.7454 6.96046C85.7454 6.96046 85.9105 8.32746 86.0735 8.92945C88.0425 7.94495 90.5027 7.23428 92.3609 7.23428C93.4541 7.23428 94.7124 7.72757 95.2036 9.42065C95.3659 9.9912 95.4578 10.5794 95.4775 11.1723C97.1726 9.58578 99.961 7.56244 101.874 7.56244C104.608 7.56244 105.373 9.69447 105.373 13.5217L105.318 31.3994" fill="#1F304C"/>
<path d="M109.998 32.6326C110.076 31.3136 110.063 29.9908 109.959 28.6737C113.359 28.6737 115.32 27.453 115.32 25.8268C115.32 23.9038 113.731 21.7216 112.586 20.1309C110.958 18.0239 109.4 15.6599 109.4 13.1035C109.4 8.55521 112.621 6.81824 119.093 6.81824C119.02 7.96368 118.907 9.14675 119.055 10.4051C115.617 10.4782 113.506 11.1074 113.506 12.7043C113.506 14.2574 113.802 14.6273 116.06 17.9926C117.611 20.2103 119.312 22.7646 119.312 25.3084C119.312 29.8923 117.057 31.8905 109.996 32.6242" fill="#1F304C"/>
<path d="M131.668 31.4099C131.078 29.2674 127.157 20.2418 125.825 17.2841C125.75 18.3293 125.788 20.131 125.788 21.3873C125.75 25.1601 125.825 31.6712 125.825 31.6712C124.41 31.3833 122.976 31.1975 121.534 31.1152C121.683 29.234 122.088 23.1723 122.126 18.392C122.163 14.2512 121.942 9.11135 121.904 7.22388C123.107 7.2209 124.308 7.12164 125.495 6.92706C125.681 8.223 129.6 17.3573 131.45 21.0925C131.45 20.0934 131.563 14.4352 131.413 11.2183C131.384 10.0041 131.274 8.79316 131.082 7.59385C132.463 7.5393 133.837 7.36586 135.188 7.07547V31.6712C133.783 31.5604 132.817 31.5228 131.672 31.4099" fill="#1F304C"/>
<path d="M147.608 32.5218C147.459 31.1527 146.757 28.8221 146.563 27.4154C146.521 27.1708 146.495 26.9236 146.487 26.6755L141.828 26.8991C141.646 27.9442 140.942 31.3367 140.794 32.4842C139.544 31.931 138.259 31.4611 136.948 31.0775C137.318 29.5621 139.874 18.6156 141.053 10.9214C141.245 9.70282 141.59 7.92613 141.59 7.29906C142.478 7.18828 144.769 7.04196 145.584 6.89355C145.877 8.22503 151.205 29.8965 151.613 31.5582C150.614 31.7422 148.728 32.1853 147.618 32.5197L147.608 32.5218ZM143.856 13.9523C143.597 15.8335 142.602 22.2735 142.414 23.3834C143.08 23.2726 144.922 23.3102 145.706 23.1973C145.409 21.7927 144.263 15.7289 143.856 13.9523Z" fill="#1F304C"/>
<path d="M157.476 22.24C157.476 25.0137 157.511 28.6737 157.733 30.7827C156.107 31.3722 153.481 31.8927 153.481 31.8927C153.481 28.8974 153.592 22.4595 153.481 16.1365C153.406 12.9552 153.149 8.74129 152.854 7.56659C154.05 7.25077 155.278 7.07747 156.514 7.0503C161.545 6.86427 165.759 8.52809 165.759 14.4455C165.759 17.6645 162.099 21.8805 157.476 22.2504V22.24ZM157.267 10.5891C157.302 11.6342 157.375 13.2896 157.413 14.6587C157.451 15.731 157.524 17.5851 157.524 18.6155C159.93 18.5027 161.669 16.3978 161.669 14.2135C161.669 11.4753 160.116 10.5891 157.267 10.5891" fill="#1F304C"/>
</g>
<defs>
<clipPath id="clip0">
<rect width="165.766" height="36" fill="white"/>
</clipPath>
</defs>
</svg>
